assets/icons/billing.svg

<svg width="20" height="20" viewBox="0 0 20 20" fill="none" xmlns="http://www.w3.org/2000/svg">
<path d="M16.4126 2C15.5219 2 14.7998 4.14903 14.7998 6.8H16.4126C17.1899 6.8 17.5785 6.8 17.8191 6.53164C18.0597 6.26327 18.0178 5.90986 17.934 5.20305C17.7129 3.33714 17.1152 2 16.4126 2Z" stroke="currentColor" stroke-width="1.3"/>
<path d="M14.8 6.84341V15.3166C14.8 16.526 14.8 17.1306 14.4304 17.3686C13.8265 17.7577 12.8929 16.9419 12.4233 16.6458C12.0353 16.4011 11.8414 16.2788 11.626 16.2718C11.3934 16.2641 11.1959 16.3814 10.7767 16.6458L9.248 17.6099C8.8356 17.8699 8.62944 18 8.4 18C8.17057 18 7.96437 17.8699 7.552 17.6099L6.0233 16.6458C5.63532 16.4011 5.44133 16.2788 5.22602 16.2718C4.99338 16.2641 4.79594 16.3814 4.3767 16.6458C3.90716 16.9419 2.9735 17.7577 2.36956 17.3686C2 17.1306 2 16.526 2 15.3166V6.84341C2 4.5602 2 3.4186 2.70294 2.7093C3.40589 2 4.53726 2 6.8 2H16.4" stroke="currentColor" stroke-width="1.3" stroke-linecap="round" stroke-linejoin="round"/>
<path d="M5.19922 6.00586H11.5992" stroke="currentColor" stroke-width="1.3" stroke-linecap="round" stroke-linejoin="round"/>
<path d="M9.5957 9.38281H5.19922" stroke="currentColor" stroke-width="1.3" stroke-linecap="round" stroke-linejoin="round"/>
<path d="M7.39746 12.7354H5.19922" stroke="currentColor" stroke-width="1.3" stroke-linecap="round" stroke-linejoin="round"/>
</svg>

<svg xmlns="http://www.w3.org/2000/svg" width="20" height="20" fill="none" viewBox="0 0 20 20"><path stroke="currentColor" stroke-width="1.3" d="M16.413 2C15.522 2 14.8 4.149 14.8 6.8h1.613c.777 0 1.165 0 1.406-.268.24-.269.199-.622.115-1.329C17.713 3.337 17.115 2 16.413 2Z"/><path stroke="currentColor" stroke-linecap="round" stroke-linejoin="round" stroke-width="1.3" d="M14.8 6.843v8.474c0 1.209 0 1.814-.37 2.052-.604.389-1.537-.427-2.007-.723-.388-.245-.582-.367-.797-.374-.233-.008-.43.11-.85.374l-1.528.964c-.412.26-.619.39-.848.39-.23 0-.436-.13-.848-.39l-1.529-.964c-.388-.245-.582-.367-.797-.374-.233-.008-.43.11-.85.374-.469.296-1.403 1.112-2.006.723C2 17.13 2 16.526 2 15.317V6.843C2 4.56 2 3.42 2.703 2.71S4.537 2 6.8 2h9.6M5.2 6.006h6.4M9.596 9.383H5.199m2.198 3.352H5.2"/></svg>
